X: 282
M: 2/2
L: 1/8
K: G
d4 c2B2 | !+!A2G2 c2B2 | !+!A2G2 !+!F2E2 | D4 GABc |\
d4 c2B2 | !+!A2G2 c2B2 | !+!A2G2 A2!+!F2 | G4 :|\
|: "2 F"B2G2 |\
d4 c2B2 | !+!A2G2 c2B2 | !+!A2G2 !+!F2E2 | D4 GABc |\
d4 c2B2 | !+!A2G2 c2B2 | !+!A2G2 A2!+!F2 | G4 |]

